src/pictures/icons/coinsIcon.svg

<svg width="45" height="45" viewBox="0 0 45 45" fill="none" xmlns="http://www.w3.org/2000/svg">
<path d="M34.6875 23.7188V30.6562C34.6875 36.5062 29.2312 41.25 22.5 41.25C15.7688 41.25 10.3125 36.5062 10.3125 30.6562V23.7188C10.3125 29.5687 15.7688 33.75 22.5 33.75C29.2312 33.75 34.6875 29.5687 34.6875 23.7188Z" stroke="#292D32" stroke-width="3" stroke-linecap="round" stroke-linejoin="round"/>
<path d="M34.6875 14.3438C34.6875 16.05 34.2187 17.625 33.3937 18.975C31.3875 22.275 27.2625 24.375 22.5 24.375C17.7375 24.375 13.6125 22.275 11.6063 18.975C10.7813 17.625 10.3125 16.05 10.3125 14.3438C10.3125 11.4188 11.6812 8.775 13.875 6.8625C16.0875 4.93125 19.125 3.75 22.5 3.75C25.875 3.75 28.9125 4.93125 31.125 6.84375C33.3188 8.775 34.6875 11.4188 34.6875 14.3438Z" stroke="#292D32" stroke-width="3" stroke-linecap="round" stroke-linejoin="round"/>
<path d="M34.6875 14.3438V23.7188C34.6875 29.5688 29.2312 33.75 22.5 33.75C15.7688 33.75 10.3125 29.5688 10.3125 23.7188V14.3438C10.3125 8.49375 15.7688 3.75 22.5 3.75C25.875 3.75 28.9125 4.93125 31.125 6.84375C33.3188 8.775 34.6875 11.4188 34.6875 14.3438Z" stroke="#292D32" stroke-width="3" stroke-linecap="round" stroke-linejoin="round"/>
</svg>

<svg width="45" height="45" fill="none" xmlns="http://www.w3.org/2000/svg"><path d="M34.688 23.719v6.937c0 5.85-5.457 10.594-12.188 10.594-6.731 0-12.188-4.744-12.188-10.594V23.72c0 5.85 5.457 10.031 12.188 10.031 6.731 0 12.188-4.181 12.188-10.031z" stroke="#292D32" stroke-width="3" stroke-linecap="round" stroke-linejoin="round"/><path d="M34.688 14.344a8.82 8.82 0 0 1-1.294 4.631c-2.006 3.3-6.131 5.4-10.894 5.4-4.762 0-8.887-2.1-10.894-5.4a8.82 8.82 0 0 1-1.293-4.631c0-2.925 1.368-5.569 3.562-7.481C16.087 4.93 19.125 3.75 22.5 3.75s6.413 1.181 8.625 3.094c2.194 1.931 3.563 4.575 3.563 7.5z" stroke="#292D32" stroke-width="3" stroke-linecap="round" stroke-linejoin="round"/><path d="M34.688 14.344v9.375c0 5.85-5.457 10.031-12.188 10.031-6.731 0-12.188-4.181-12.188-10.031v-9.375c0-5.85 5.457-10.594 12.188-10.594 3.375 0 6.413 1.181 8.625 3.094 2.194 1.931 3.563 4.575 3.563 7.5z" stroke="#292D32" stroke-width="3" stroke-linecap="round" stroke-linejoin="round"/></svg>
